material/.icons/material/locker.svg

<svg xmlns="http://www.w3.org/2000/svg" viewBox="0 0 24 24"><path d="M8 2h8a2 2 0 012 2v16a2 2 0 01-2 2H8a2 2 0 01-2-2V4a2 2 0 012-2m0 2v16h8V4H8m2 9h2v4h-2v-4m0-7h4v1.5h-4V6m0 3h4v1.5h-4V9z"/></svg>

<?xml version="1.0" encoding="UTF-8"?><!DOCTYPE svg PUBLIC "-//W3C//DTD SVG 1.1//EN" "http://www.w3.org/Graphics/SVG/1.1/DTD/svg11.dtd"><svg xmlns="http://www.w3.org/2000/svg" xmlns:xlink="http://www.w3.org/1999/xlink" version="1.1" id="mdi-locker" width="24" height="24" viewBox="0 0 24 24"><path d="M8,2H16A2,2 0 0,1 18,4V20A2,2 0 0,1 16,22H8A2,2 0 0,1 6,20V4A2,2 0 0,1 8,2M8,4V20H16V4H8M10,13H12V17H10V13M10,6H14V7.5H10V6M10,9H14V10.5H10V9Z" /></svg>
